X: 20923
T: The DARK PHANTOM
O: Irish air.
Q: "Slow and tenderly."
%R: air, waltz
N: This is version 1, for ABC software that doesn't understand diminuendo/crescendo notation.
B: W. Hamilton "Universal Tune-Book" Vol. 2 Glasgow 1846 p.92 #3
S: http://s3-eu-west-1.amazonaws.com/itma.dl.printmaterial/book_pdfs/hamiltonvol2web.pdf
Z: 2016 John Chambers <jc:trillian.mit.edu>
M: 3/4
L: 1/8
K: Eb
% - - - - - - - - - - - - - - - - - - - - - - - - -
EF |!p!\
G4 "^>"cB | B4 "^<"G>B | ("^>"c2 B2 G2) | B2 B2 ("^cres."cd) |\
"^>"e4 (dc) | "^>"B2 !p!G2 (c>d) | "^>"B2 !pp!G2 c>d | B2 !mf!G2 EF |\
"cres."G2 B2 (cd) | "^>"e2 e2 (dc) | (BA) (GF) (EF) "cres."| G2 !f!c2 (Bc) |\
"^>"e2 d2 c2 | "^>"B2 G2 !p!(AG) | F2 "^cres."E2 (GB) | !f!c2 e2 |]
% - - - - - - - - - - - - - - - - - - - - - - - - -

%%sep 1 1 500
%%sep 1 1 500

